X: 26001
T: Mayor Harrison's Fedora
R: reel
M: 4/4
K: Edorian
EF|:GBEG ~B2 AF|GFGA BdAG|FADF ADFA|~d2 cd BAGF|
GBEG ~B2 AF|GFGA ~B3 c|dedB AGFA|1 GEFD ~E3 F:|2 GEFD ~E3 A||
|:Beed e2 ef|g2 fg edBA|FABc d2 (3ABc|dfaf gfed|
Beed e2 ef|g2 fg edBc|dedB AGFA|1 GEFD ~E3 A:|2 GEFD ~E3 F||
|:G2GF GABc|dBAG FADA|Beed efge|fedf edBc|
dedB AGFA|GFEF GABc|dedB AGFA|GEFD ~E3F:|

